X:1
T:Waiting for the Promise
T:John Robson Sweney
T:Waiting for the Promise
T:Public Domain
T:Public Domain
C:John Robson Sweney
Z:Public Domain
%%score 1 2
L:1/8
M:4/4
K:C
V:1 treble 
V:2 bass 
V:1
 [EG]2 | [EG]3 [FA] [EG]2 [CE]2 | [EG]2 [Ec]2 [Ec]2 [Gc]2 | [Ac]3 [Ad] [Ac]2 [FA]2 | [EG]6 | %5
w: 1.~Come,|Ho- ly Ghost, and|touch my tongue As|with a liv- ing|flame;|
w: 2.~Come,|Ho- ly Ghost, with|sac- red fire Bap-|tize this heart of|mine;|
w: 3.~I|want a self re-|nounc- ing will, That|owns His sweet con-|trol,|
w: 4.~Come,|Ho- ly Ghost, the|blood ap- ply As|Thou hast ne’er be-|fore,|
 [EG]2 | [EG]3 [FA] [EG]2 [CE]2 | [EG]2 [Gc]2 [Gc]2 [Ac]2 | [Ge]3 [Gc] [Ge]2 [Fd]2 | [Ec]6 || %10
w: I|want the sanc- t-|ify- ing grace My|Sav- ior bids me|claim.|
w: Break|ev- ery earth- ly|i- dol down, And|all its dross re-|fine.|
w: And|through my life I|want His love A|cease- less flood to|roll.|
w: That|I may shout my|Sav- ior’s praise Hence-|forth and ev- er-|more.|
"^Refrain" [FA]4 [Fc]2 ([Ac]/[GB]/)[FA] | [EG]4 [CE]2 [CE]>[DF] | %12
w: ||
w: Wait- ing, I * am|wait- ing For the|
w: ||
w: ||
 E<[EG] [Ec]>[Ec] [Ge][Ge] [^Fd]>[Fc] | [Fd]6 | [Ge]4 [Ec]2 ([Ge]/[Fd]/)[Ec] | %15
w: |||
w: pro- mise of the Pen- te- cos- tal|shower;|Wait- ing, I * am|
w: |||
w: |||
 [Fd]4 [FA]2 [FB]>[FA] | [EG]<[EG] [Ec]>[Fd] [Ge][Ec] [DB]<[Fd] | [Ec]6 |] %18
w: |||
w: wait- ing For the|pro- mise of Thy wond- rous, might- y|power.|
w: |||
w: |||
V:2
 [C,C]2 | [C,C]3 [C,C] [C,C]2 [C,G,]2 | [C,C]2 [C,G,]2 [C,G,]2 [E,C]2 | %3
 [F,C]3 [F,C] [F,C]2 [F,C]2 | [C,C]6 | [C,C]2 | [C,C]3 [C,C] [C,C]2 [C,G,]2 | %7
 [C,C]2 [E,C]2 [E,C]2 [F,C]2 | [G,C]3 [G,E] [G,C]2 [G,B,]2 | [C,C]6 || [F,C]4 [F,A,]2 z2 | %11
 [C,C]4 [C,G,]2 [C,G,]>[C,G,] | [C,C]<[C,C] [C,G,]>[C,G,] [C,C][C,C] [D,A,]>[D,A,] | [G,B,]6 | %14
 [C,C]4 [C,G,]2 z2 | [F,A,]4 [F,C]2 [F,C]>[F,C] | [G,C]<[G,C] G,>G, G,G, [G,,G,]<[G,,G,] | %17
 [C,G,]6 |] %18

